third_party/noto/noto_2/emoji_u1f4f4.svg

<svg enable-background="new 0 0 128 128" version="1.1" viewBox="0 0 128 128" xmlns="http://www.w3.org/2000/svg"><path d="m116 4h-104c-4.42 0-8 3.58-8 8v104c0 4.42 3.58 8 8 8h104c4.42 0 8-3.58 8-8v-104c0-4.42-3.58-8-8-8z" fill="#F77E00"/><path d="m116 4h-104c-4.42 0-8 3.58-8 8v104c0 4.42 3.58 8 8 8h104c4.42 0 8-3.58 8-8v-104c0-4.42-3.58-8-8-8z" fill="#F77E00"/><path d="m109.7 4h-98.2c-4.13 0.03-7.47 3.37-7.5 7.5v97.9c-0.01 4.14 3.34 7.49 7.48 7.5h0.02 98.1c4.14 0.01 7.49-3.34 7.5-7.48v-0.02-97.9c0.09-4.05-3.13-7.41-7.18-7.5h-0.22z" fill="#FF9800"/><path d="m39.7 12.9c0-2.3-1.6-3-10.8-2.7-7.7 0.3-11.5 1.2-13.8 4s-2.9 8.5-3 15.3c0 4.8 0 9.3 2.5 9.3 3.4 0 3.4-7.9 6.2-12.3 5.4-8.7 18.9-10.6 18.9-13.6z" enable-background="new" fill="#FFBD52" opacity=".75"/><g fill="#FAFAFA"><path d="m40.44 76.79c-2.23-1.29-3.99-3.06-5.27-5.31s-1.92-4.71-1.92-7.4 0.64-5.16 1.92-7.4c1.28-2.25 3.04-4.02 5.27-5.31s4.72-1.94 7.46-1.94 5.23 0.65 7.46 1.94 3.99 3.06 5.27 5.31 1.92 4.71 1.92 7.4-0.64 5.16-1.92 7.4-3.04 4.01-5.27 5.31c-2.23 1.29-4.72 1.94-7.46 1.94s-5.23-0.64-7.46-1.94zm12.2-4.29c1.44-0.81 2.57-1.95 3.39-3.41s1.23-3.13 1.23-5.01-0.41-3.55-1.23-5.01-1.95-2.6-3.39-3.41-3.02-1.21-4.74-1.21-3.3 0.41-4.72 1.21c-1.42 0.81-2.55 1.95-3.37 3.41s-1.23 3.13-1.23 5.01 0.41 3.55 1.23 5.01 1.95 2.6 3.37 3.41 3 1.21 4.72 1.21 3.31-0.4 4.74-1.21z"/><path d="M66.57,50.06h17.79v5.01h-12.5v6.82H83.1v5.01H71.86v11.2h-5.29V50.06z"/><path d="m89.02 50.06h17.79v5.01h-12.51v6.82h11.24v5.01h-11.24v11.2h-5.29l0.01-28.04z"/></g><path d="m66.44 84.1v11.26c0 0.63-0.51 1.14-1.14 1.14h-34.8c-0.59 0.04-1.11-0.41-1.14-1v-0.14-62.73c0-0.63 0.51-1.14 1.14-1.14h34.8c0.59-0.04 1.11 0.41 1.14 1v0.14 11.78h4.58v-18.08c-0.01-1.61-1.08-3.01-2.63-3.43-2.29-0.57-8.24-2.4-20.49-2.4s-19.35 2.06-20.49 2.4c-1.55 0.42-2.63 1.83-2.63 3.43v75.44c0.04 1.59 1.1 2.98 2.63 3.43 1.26 0.34 8.24 2.4 20.49 2.4s18.32-1.83 20.49-2.4c1.55-0.42 2.63-1.83 2.63-3.43v-17.67h-4.58zm-26.67-58.46h16.26c0.63 0 1.14 0.51 1.14 1.14s-0.51 1.14-1.14 1.14h-16.26c-0.63 0-1.14-0.51-1.14-1.14s0.51-1.14 1.14-1.14zm-7.9 0c0.63 0 1.14 0.51 1.14 1.14s-0.51 1.14-1.14 1.14-1.14-0.51-1.14-1.14c0.04-0.6 0.53-1.09 1.14-1.14zm24.16 76.59h-16.26c-0.63 0-1.14-0.51-1.14-1.14s0.51-1.14 1.14-1.14h16.26c0.63 0 1.14 0.51 1.14 1.14-0.04 0.6-0.53 1.09-1.14 1.14z" fill="#FAFAFA"/></svg>

<?xml version="1.0" encoding="utf-8"?>
<!-- Generator: Adobe Illustrator 25.2.3, SVG Export Plug-In . SVG Version: 6.00 Build 0)  -->
<svg version="1.1" id="Layer_2" xmlns="http://www.w3.org/2000/svg" xmlns:xlink="http://www.w3.org/1999/xlink" x="0px" y="0px"
	 viewBox="0 0 128 128" style="enable-background:new 0 0 128 128;" xml:space="preserve">
<path style="fill:#F77E00;" d="M116,4H12c-4.42,0-8,3.58-8,8v104c0,4.42,3.58,8,8,8h104c4.42,0,8-3.58,8-8V12
	C124,7.58,120.42,4,116,4z"/>
<g>
	<path style="fill:#F77E00;" d="M116,4H12c-4.42,0-8,3.58-8,8v104c0,4.42,3.58,8,8,8h104c4.42,0,8-3.58,8-8V12
		C124,7.58,120.42,4,116,4z"/>
	<path style="fill:#FF9800;" d="M109.7,4H11.5C7.37,4.03,4.03,7.37,4,11.5v97.9c-0.01,4.14,3.34,7.49,7.48,7.5c0.01,0,0.01,0,0.02,0
		h98.1c4.14,0.01,7.49-3.34,7.5-7.48c0-0.01,0-0.01,0-0.02V11.5c0.09-4.05-3.13-7.41-7.18-7.5C109.85,4,109.77,4,109.7,4z"/>
	<path style="opacity:0.75;fill:#FFBD52;enable-background:new    ;" d="M39.7,12.9c0-2.3-1.6-3-10.8-2.7c-7.7,0.3-11.5,1.2-13.8,4
		s-2.9,8.5-3,15.3c0,4.8,0,9.3,2.5,9.3c3.4,0,3.4-7.9,6.2-12.3C26.2,17.8,39.7,15.9,39.7,12.9z"/>
	<g>
		<path style="fill:#FAFAFA;" d="M40.44,76.79c-2.23-1.29-3.99-3.06-5.27-5.31s-1.92-4.71-1.92-7.4c0-2.69,0.64-5.16,1.92-7.4
			c1.28-2.25,3.04-4.02,5.27-5.31s4.72-1.94,7.46-1.94s5.23,0.65,7.46,1.94c2.23,1.29,3.99,3.06,5.27,5.31s1.92,4.71,1.92,7.4
			s-0.64,5.16-1.92,7.4s-3.04,4.01-5.27,5.31c-2.23,1.29-4.72,1.94-7.46,1.94S42.67,78.09,40.44,76.79z M52.64,72.5
			c1.44-0.81,2.57-1.95,3.39-3.41c0.82-1.46,1.23-3.13,1.23-5.01c0-1.88-0.41-3.55-1.23-5.01c-0.82-1.46-1.95-2.6-3.39-3.41
			s-3.02-1.21-4.74-1.21s-3.3,0.41-4.72,1.21c-1.42,0.81-2.55,1.95-3.37,3.41s-1.23,3.13-1.23,5.01c0,1.88,0.41,3.55,1.23,5.01
			s1.95,2.6,3.37,3.41c1.42,0.81,3,1.21,4.72,1.21S51.21,73.31,52.64,72.5z"/>
		<path style="fill:#FAFAFA;" d="M66.57,50.06h17.79v5.01h-12.5v6.82H83.1v5.01H71.86v11.2h-5.29V50.06z"/>
		<path style="fill:#FAFAFA;" d="M89.02,50.06h17.79v5.01H94.3v6.82h11.24v5.01H94.3v11.2h-5.29L89.02,50.06L89.02,50.06z"/>
	</g>
	<path style="fill:#FAFAFA;" d="M66.44,84.1v11.26c0,0.63-0.51,1.14-1.14,1.14H30.5c-0.59,0.04-1.11-0.41-1.14-1
		c0-0.05,0-0.09,0-0.14V32.63c0-0.63,0.51-1.14,1.14-1.14h34.8c0.59-0.04,1.11,0.41,1.14,1c0,0.05,0,0.09,0,0.14v11.78h4.58V26.33
		c-0.01-1.61-1.08-3.01-2.63-3.43c-2.29-0.57-8.24-2.4-20.49-2.4s-19.35,2.06-20.49,2.4c-1.55,0.42-2.63,1.83-2.63,3.43v75.44
		c0.04,1.59,1.1,2.98,2.63,3.43c1.26,0.34,8.24,2.4,20.49,2.4s18.32-1.83,20.49-2.4c1.55-0.42,2.63-1.83,2.63-3.43V84.1H66.44z
		 M39.77,25.64h16.26c0.63,0,1.14,0.51,1.14,1.14s-0.51,1.14-1.14,1.14H39.77c-0.63,0-1.14-0.51-1.14-1.14S39.14,25.64,39.77,25.64z
		 M31.87,25.64c0.63,0,1.14,0.51,1.14,1.14s-0.51,1.14-1.14,1.14s-1.14-0.51-1.14-1.14C30.77,26.18,31.26,25.69,31.87,25.64z
		 M56.03,102.23H39.77c-0.63,0-1.14-0.51-1.14-1.14s0.51-1.14,1.14-1.14h16.26c0.63,0,1.14,0.51,1.14,1.14
		C57.13,101.69,56.64,102.18,56.03,102.23z"/>
</g>
</svg>
